public/assets/img/logo.svg

<?xml version="1.0" encoding="UTF-8" standalone="no"?>
<!-- Created with Inkscape (http://www.inkscape.org/) -->

<svg
   width="1063.9662mm"
   height="262.01608mm"
   viewBox="0 0 1063.9662 262.01608"
   version="1.1"
   id="svg1"
   xml:space="preserve"
   xmlns:inkscape="http://www.inkscape.org/namespaces/inkscape"
   xmlns:sodipodi="http://sodipodi.sourceforge.net/DTD/sodipodi-0.dtd"
   xmlns:xlink="http://www.w3.org/1999/xlink"
   xmlns="http://www.w3.org/2000/svg"
   xmlns:svg="http://www.w3.org/2000/svg"><sodipodi:namedview
     id="namedview1"
     pagecolor="#ffffff"
     bordercolor="#000000"
     borderopacity="0.25"
     inkscape:showpageshadow="2"
     inkscape:pageopacity="0.0"
     inkscape:pagecheckerboard="0"
     inkscape:deskcolor="#d1d1d1"
     inkscape:document-units="mm" /><defs
     id="defs1"><linearGradient
       id="linearGradient3"
       inkscape:collect="always"><stop
         style="stop-color:#4b19db;stop-opacity:1;"
         offset="0"
         id="stop5" /><stop
         style="stop-color:#d000cc;stop-opacity:1;"
         offset="1"
         id="stop6" /></linearGradient><linearGradient
       inkscape:collect="always"
       xlink:href="#linearGradient3"
       id="linearGradient6"
       x1="65.365593"
       y1="-58.02903"
       x2="82.72197"
       y2="97.798096"
       gradientUnits="userSpaceOnUse" /></defs><g
     inkscape:label="Layer 1"
     inkscape:groupmode="layer"
     id="layer1"
     transform="translate(296.59782,-3.3602282)"><g
       style="fill:none"
       id="g1"
       transform="matrix(8.3417624,0,0,8.3417624,-299.53047,-76.489337)"
       inkscape:export-filename="g1.svg"
       inkscape:export-xdpi="96"
       inkscape:export-ydpi="96"><path
         id="path1"
         style="fill:url(#linearGradient6);fill-opacity:1"
         d="m 27.9375,9.5722656 c -0.4962,0 -0.966057,0.1019146 -1.410156,0.3027344 -0.431,0.18746 -0.810219,0.448503 -1.136719,0.783203 -0.3134,0.3214 -0.567672,0.708863 -0.763672,1.164063 -0.1828,0.441899 -0.275391,0.91095 -0.275391,1.40625 0,0.508799 0.09259,0.983981 0.275391,1.425781 0.196,0.441799 0.450272,0.829363 0.763672,1.164062 0.3265,0.3213 0.705719,0.582404 1.136719,0.783203 0.444099,0.1874 0.913956,0.28125 1.410156,0.28125 0.4965,10e-7 0.959425,-0.09385 1.390625,-0.28125 0.4441,-0.200799 0.82965,-0.461903 1.15625,-0.783203 0.3266,-0.334699 0.580972,-0.722263 0.763672,-1.164062 0.1961,-0.4418 0.294922,-0.916982 0.294922,-1.425781 0,-0.4953 -0.09882,-0.964351 -0.294922,-1.40625 -0.1827,-0.4552 -0.437072,-0.842663 -0.763672,-1.164063 -0.3266,-0.3347 -0.71215,-0.595743 -1.15625,-0.783203 C 28.896925,9.6741802 28.434,9.5722656 27.9375,9.5722656 Z m 52.074219,0 c -0.4962,0 -0.966157,0.1019146 -1.410157,0.3027344 -0.431199,0.18746 -0.810319,0.448503 -1.136718,0.783203 -0.3135,0.3214 -0.567572,0.708863 -0.763672,1.164063 -0.1827,0.441899 -0.275391,0.91095 -0.275391,1.40625 0,0.508799 0.09269,0.983981 0.275391,1.425781 0.1961,0.441799 0.450172,0.829363 0.763672,1.164062 0.326399,0.3213 0.705519,0.582404 1.136718,0.783203 0.444,0.1874 0.913957,0.28125 1.410157,0.28125 0.496399,10e-7 0.959725,-0.09385 1.390625,-0.28125 0.444099,-0.200799 0.82965,-0.461903 1.15625,-0.783203 0.326399,-0.334699 0.580672,-0.722263 0.763672,-1.164062 0.195799,-0.4418 0.294922,-0.916982 0.294922,-1.425781 0,-0.4953 -0.09912,-0.964351 -0.294922,-1.40625 -0.183,-0.4552 -0.437273,-0.842663 -0.763672,-1.164063 -0.3266,-0.3347 -0.712151,-0.595743 -1.15625,-0.783203 -0.4309,-0.2008198 -0.894226,-0.3027344 -1.390625,-0.3027344 z M 55.679688,10.517578 v 30.0625 h 5.386718 v -2.75 l 3.722656,-5.060547 4.251954,7.810547 h 6.15039 l -6.955078,-12.511719 6.955078,-8.955078 h -6.15039 l -7.97461,10.361328 V 10.517578 Z m 32.246093,0 v 8.595703 h -2.605469 v 5.460938 h 2.605469 v 6.386719 c 0,1.325398 0.243263,2.571629 0.726563,3.736328 0.496199,1.164798 1.168579,2.188566 2.017578,3.072265 0.862199,0.870299 1.861748,1.55966 2.998047,2.06836 1.136299,0.495399 2.349479,0.742187 3.642578,0.742187 h 4.054683 v -5.46289 h -4.054683 c -0.5618,0 -1.089438,-0.105913 -1.585938,-0.320313 -0.496199,-0.2276 -0.927069,-0.529197 -1.292968,-0.904297 -0.3657,-0.3748 -0.654382,-0.809488 -0.863282,-1.304687 -0.209099,-0.5089 -0.3125,-1.051154 -0.3125,-1.626953 v -6.386719 h 8.109371 V 19.113281 H 93.255859 V 10.517578 Z M 0.3515625,11.783203 v 5.763672 H 8.796875 v 23.033203 h 5.603516 V 17.546875 h 8.423828 v -5.763672 z m 43.9257815,6.464844 c -1.475799,0 -2.86763,0.308029 -4.173828,0.923828 -1.292999,0.615899 -2.428604,1.460251 -3.408204,2.53125 -0.966699,1.057699 -1.731169,2.301776 -2.292968,3.734375 -0.5614,1.432599 -0.841797,2.972242 -0.841797,4.619141 0,1.512998 0.280397,2.932313 0.841797,4.257812 0.561799,1.325399 1.326269,2.48391 2.292968,3.474609 0.9796,0.9909 2.115205,1.77381 3.408204,2.34961 1.306198,0.562099 2.698029,0.84375 4.173828,0.84375 0.875199,0 1.724076,-0.108166 2.546875,-0.322266 0.835899,-0.2007 1.624741,-0.500644 2.36914,-0.902344 0.7575,-0.401699 1.457557,-0.890997 2.097657,-1.466796 0.652999,-0.5755 1.226456,-1.224167 1.722656,-1.947266 l -3.917969,-4.037109 c -0.2089,0.481999 -0.482866,0.924472 -0.822265,1.326171 -0.3266,0.3883 -0.70582,0.722907 -1.136719,1.003907 -0.4181,0.267899 -0.868163,0.475847 -1.351563,0.623047 -0.483299,0.147199 -0.985413,0.220703 -1.507812,0.220703 -0.7314,0 -1.425126,-0.140576 -2.078125,-0.421875 -0.6401,-0.281 -1.200494,-0.670516 -1.683594,-1.166016 -0.4702,-0.495099 -0.843088,-1.070763 -1.117187,-1.726562 -0.2742,-0.6562 -0.41211,-1.359776 -0.41211,-2.109375 0,-0.923799 0.13791,-1.766198 0.41211,-2.529297 0.274099,-0.763199 0.646987,-1.419851 1.117187,-1.96875 0.4831,-0.5623 1.043494,-0.996788 1.683594,-1.304688 0.652999,-0.307899 1.346725,-0.46289 2.078125,-0.46289 0.522399,0 1.031144,0.08159 1.527344,0.242187 0.496499,0.1607 0.953194,0.395225 1.371093,0.703125 0.4311,0.308 0.816751,0.689332 1.15625,1.144531 0.3397,0.4418 0.606935,0.94356 0.802735,1.50586 l 3.919922,-4.03711 c -0.4702,-0.816699 -1.032648,-1.538669 -1.685547,-2.167968 -0.6401,-0.6293 -1.344536,-1.159491 -2.115235,-1.587891 -0.757499,-0.4418 -1.561157,-0.776306 -2.410156,-1.003906 -0.835899,-0.2277 -1.691207,-0.341797 -2.566406,-0.341797 z m -19.042969,0.824219 v 21.507812 h 5.386719 V 19.072266 Z m 52.074219,0 v 21.507812 h 5.386718 V 19.072266 Z m 25.958986,0.04102 v 5.460938 h 8.83594 l -8.83594,16.005859 h 17.49414 v -5.46289 h -8.83594 l 8.83594,-16.003907 z m 19.67187,1.976563 c -0.0134,8.9e-4 -0.0258,0.0042 -0.0391,0.0078 -0.052,0.0145 -0.097,0.04916 -0.125,0.09766 l -5.23047,9.28711 v 0.002 c -0.013,0.0239 -0.0233,0.04877 -0.0273,0.07617 -0.003,0.0277 -10e-4,0.05718 0.006,0.08398 0.007,0.0269 0.0192,0.05007 0.0352,0.07227 0.017,0.0219 0.0366,0.04069 0.0606,0.05469 l 1.76367,1.042969 c 0.109,-0.127 0.25692,-0.212534 0.41992,-0.240234 0.163,-0.0274 0.32966,0.0053 0.47266,0.08984 0.143,0.0847 0.2545,0.216801 0.3125,0.375 0.059,0.1582 0.0608,0.331788 0.008,0.492188 l 1.74024,1.029297 c 0.007,0.0054 0.0145,0.01093 0.0215,0.01563 0.024,0.014 0.0492,0.02149 0.0762,0.02539 0.026,0.0035 0.0541,0.0032 0.0801,-0.0039 0.026,-0.0071 0.0503,-0.02011 0.0723,-0.03711 0.021,-0.0167 0.0387,-0.0383 0.0527,-0.0625 l 5.23047,-9.287109 c 0.014,-0.024 0.0233,-0.05063 0.0273,-0.07813 0.003,-0.0275 0.002,-0.05523 -0.006,-0.08203 -0.006,-0.0268 -0.0191,-0.05222 -0.0352,-0.07422 -0.016,-0.022 -0.0375,-0.04079 -0.0605,-0.05469 -0.005,-0.0024 -0.01,-0.0037 -0.0137,-0.0059 l -1.75,-1.035157 c -0.109,0.1272 -0.25692,0.210782 -0.41992,0.238282 -0.163,0.0276 -0.32966,-0.0033 -0.47266,-0.08789 -0.143,-0.0848 -0.2535,-0.218353 -0.3125,-0.376953 -0.058,-0.1586 -0.0618,-0.331688 -0.008,-0.492188 l -1.76172,-1.042968 c -0.036,-0.02092 -0.0768,-0.03197 -0.11719,-0.0293 z m 0.42383,1.615234 c 0.0399,-0.0027 0.0792,0.0063 0.11524,0.02734 l 2.74023,1.623047 c 0.024,0.0139 0.0435,0.03269 0.0606,0.05469 0.016,0.0219 0.0281,0.04547 0.0351,0.07227 0.007,0.0267 0.009,0.05453 0.006,0.08203 -0.004,0.0274 -0.0124,0.05412 -0.0254,0.07813 l -4.07812,7.240234 c -0.014,0.0242 -0.0317,0.0458 -0.0527,0.0625 -0.022,0.017 -0.0463,0.02991 -0.0723,0.03711 -0.026,0.0071 -0.0541,0.0094 -0.0801,0.0059 -0.027,-0.0036 -0.0522,-0.01334 -0.0762,-0.02734 L 119.19539,30.3399 c -0.023,-0.014 -0.0445,-0.03269 -0.0605,-0.05469 -0.017,-0.0219 -0.0282,-0.04762 -0.0352,-0.07422 -0.007,-0.0269 -0.01,-0.05463 -0.006,-0.08203 0.004,-0.0274 0.0114,-0.05422 0.0254,-0.07813 l 4.07813,-7.240234 c 0.027,-0.0485 0.072,-0.08316 0.125,-0.09766 0.013,-0.0036 0.0277,-0.0069 0.041,-0.0078 z m -0.32226,3.38086 c -0.006,7.49e-4 -0.0121,0.0013 -0.0176,0.0039 -0.011,0.0052 -0.0213,0.01439 -0.0273,0.02539 l -0.41992,0.748047 -0.8457,-0.162109 c -0.012,-0.0023 -0.0261,5.59e-4 -0.0371,0.0059 -0.011,0.0053 -0.0194,0.01244 -0.0254,0.02344 -0.006,0.0109 -0.0108,0.02451 -0.01,0.03711 0.001,0.0126 0.008,0.0236 0.0156,0.0332 l 0.55859,0.671875 -0.41992,0.746094 c -0.006,0.0113 -0.009,0.02451 -0.008,0.03711 10e-4,0.0129 0.006,0.02556 0.0137,0.03516 0.008,0.0096 0.0192,0.01653 0.0312,0.01953 0.013,0.0031 0.0251,6.94e-4 0.0371,-0.0039 l 0.77734,-0.316407 0.57422,0.6875 c 0.008,0.0093 0.0192,0.01643 0.0312,0.01953 0.012,0.003 0.0251,0.0023 0.0371,-0.002 0.011,-0.0044 0.0203,-0.01304 0.0273,-0.02344 0.007,-0.0104 0.01,-0.02256 0.01,-0.03516 l -0.0156,-0.921875 0.78711,-0.447266 c 0.011,-0.0062 0.0204,-0.01594 0.0254,-0.02734 0.005,-0.0113 0.008,-0.02461 0.006,-0.03711 -0.002,-0.0124 -0.008,-0.0242 -0.0156,-0.0332 -0.009,-0.0089 -0.0212,-0.01342 -0.0332,-0.01563 l -0.86719,-0.166016 -0.12305,-0.851562 c -0.002,-0.0125 -0.007,-0.0241 -0.0156,-0.0332 -0.009,-0.0092 -0.0192,-0.01518 -0.0312,-0.01758 -0.006,-0.0011 -0.0134,-7.5e-4 -0.0195,0 z" /></g></g></svg>

<?xml version="1.0" encoding="UTF-8" standalone="no"?>
<svg
   width="130"
   height="51"
   viewBox="0 0 130 51"
   fill="none"
   version="1.1"
   id="svg3"
   sodipodi:docname="logo.svg"
   inkscape:version="1.3 (0e150ed6c4, 2023-07-21)"
   xmlns:inkscape="http://www.inkscape.org/namespaces/inkscape"
   xmlns:sodipodi="http://sodipodi.sourceforge.net/DTD/sodipodi-0.dtd"
   xmlns:xlink="http://www.w3.org/1999/xlink"
   xmlns="http://www.w3.org/2000/svg"
   xmlns:svg="http://www.w3.org/2000/svg">
  <defs
     id="defs3">
    <linearGradient
       id="linearGradient3"
       inkscape:collect="always">
      <stop
         style="stop-color:#4b19db;stop-opacity:1;"
         offset="0"
         id="stop5" />
      <stop
         style="stop-color:#d000cc;stop-opacity:1;"
         offset="1"
         id="stop6" />
    </linearGradient>
    <linearGradient
       inkscape:collect="always"
       xlink:href="#linearGradient3"
       id="linearGradient6"
       x1="65.365593"
       y1="-58.02903"
       x2="82.72197"
       y2="97.798096"
       gradientUnits="userSpaceOnUse" />
  </defs>
  <sodipodi:namedview
     id="namedview3"
     pagecolor="#ffffff"
     bordercolor="#000000"
     borderopacity="0.25"
     inkscape:showpageshadow="2"
     inkscape:pageopacity="0.0"
     inkscape:pagecheckerboard="0"
     inkscape:deskcolor="#d1d1d1"
     inkscape:zoom="1.7582482"
     inkscape:cx="117.44644"
     inkscape:cy="48.059199"
     inkscape:window-width="1920"
     inkscape:window-height="1009"
     inkscape:window-x="-8"
     inkscape:window-y="-8"
     inkscape:window-maximized="1"
     inkscape:current-layer="svg3" />
  <path
     id="path1"
     style="fill-opacity:1;fill:url(#linearGradient6)"
     d="M 27.9375 9.5722656 C 27.4413 9.5722656 26.971443 9.6741802 26.527344 9.875 C 26.096344 10.06246 25.717125 10.323503 25.390625 10.658203 C 25.077225 10.979603 24.822953 11.367066 24.626953 11.822266 C 24.444153 12.264165 24.351562 12.733216 24.351562 13.228516 C 24.351562 13.737315 24.444153 14.212497 24.626953 14.654297 C 24.822953 15.096096 25.077225 15.48366 25.390625 15.818359 C 25.717125 16.139659 26.096344 16.400763 26.527344 16.601562 C 26.971443 16.788962 27.4413 16.882812 27.9375 16.882812 C 28.434 16.882813 28.896925 16.788962 29.328125 16.601562 C 29.772225 16.400763 30.157775 16.139659 30.484375 15.818359 C 30.810975 15.48366 31.065347 15.096096 31.248047 14.654297 C 31.444147 14.212497 31.542969 13.737315 31.542969 13.228516 C 31.542969 12.733216 31.444147 12.264165 31.248047 11.822266 C 31.065347 11.367066 30.810975 10.979603 30.484375 10.658203 C 30.157775 10.323503 29.772225 10.06246 29.328125 9.875 C 28.896925 9.6741802 28.434 9.5722656 27.9375 9.5722656 z M 80.011719 9.5722656 C 79.515519 9.5722656 79.045562 9.6741802 78.601562 9.875 C 78.170363 10.06246 77.791243 10.323503 77.464844 10.658203 C 77.151344 10.979603 76.897272 11.367066 76.701172 11.822266 C 76.518472 12.264165 76.425781 12.733216 76.425781 13.228516 C 76.425781 13.737315 76.518472 14.212497 76.701172 14.654297 C 76.897272 15.096096 77.151344 15.48366 77.464844 15.818359 C 77.791243 16.139659 78.170363 16.400763 78.601562 16.601562 C 79.045562 16.788962 79.515519 16.882812 80.011719 16.882812 C 80.508118 16.882813 80.971444 16.788962 81.402344 16.601562 C 81.846443 16.400763 82.231994 16.139659 82.558594 15.818359 C 82.884993 15.48366 83.139266 15.096096 83.322266 14.654297 C 83.518065 14.212497 83.617188 13.737315 83.617188 13.228516 C 83.617188 12.733216 83.518065 12.264165 83.322266 11.822266 C 83.139266 11.367066 82.884993 10.979603 82.558594 10.658203 C 82.231994 10.323503 81.846443 10.06246 81.402344 9.875 C 80.971444 9.6741802 80.508118 9.5722656 80.011719 9.5722656 z M 55.679688 10.517578 L 55.679688 40.580078 L 61.066406 40.580078 L 61.066406 37.830078 L 64.789062 32.769531 L 69.041016 40.580078 L 75.191406 40.580078 L 68.236328 28.068359 L 75.191406 19.113281 L 69.041016 19.113281 L 61.066406 29.474609 L 61.066406 10.517578 L 55.679688 10.517578 z M 87.925781 10.517578 L 87.925781 19.113281 L 85.320312 19.113281 L 85.320312 24.574219 L 87.925781 24.574219 L 87.925781 30.960938 C 87.925781 32.286336 88.169044 33.532567 88.652344 34.697266 C 89.148543 35.862064 89.820923 36.885832 90.669922 37.769531 C 91.532121 38.63983 92.53167 39.329191 93.667969 39.837891 C 94.804268 40.33329 96.017448 40.580078 97.310547 40.580078 L 101.36523 40.580078 L 101.36523 35.117188 L 97.310547 35.117188 C 96.748747 35.117188 96.221109 35.011275 95.724609 34.796875 C 95.22841 34.569275 94.79754 34.267678 94.431641 33.892578 C 94.065941 33.517778 93.777259 33.08309 93.568359 32.587891 C 93.35926 32.078991 93.255859 31.536737 93.255859 30.960938 L 93.255859 24.574219 L 101.36523 24.574219 L 101.36523 19.113281 L 93.255859 19.113281 L 93.255859 10.517578 L 87.925781 10.517578 z M 0.3515625 11.783203 L 0.3515625 17.546875 L 8.796875 17.546875 L 8.796875 40.580078 L 14.400391 40.580078 L 14.400391 17.546875 L 22.824219 17.546875 L 22.824219 11.783203 L 0.3515625 11.783203 z M 44.277344 18.248047 C 42.801545 18.248047 41.409714 18.556076 40.103516 19.171875 C 38.810517 19.787774 37.674912 20.632126 36.695312 21.703125 C 35.728613 22.760824 34.964143 24.004901 34.402344 25.4375 C 33.840944 26.870099 33.560547 28.409742 33.560547 30.056641 C 33.560547 31.569639 33.840944 32.988954 34.402344 34.314453 C 34.964143 35.639852 35.728613 36.798363 36.695312 37.789062 C 37.674912 38.779962 38.810517 39.562872 40.103516 40.138672 C 41.409714 40.700771 42.801545 40.982422 44.277344 40.982422 C 45.152543 40.982422 46.00142 40.874256 46.824219 40.660156 C 47.660118 40.459456 48.44896 40.159512 49.193359 39.757812 C 49.950859 39.356113 50.650916 38.866815 51.291016 38.291016 C 51.944015 37.715516 52.517472 37.066849 53.013672 36.34375 L 49.095703 32.306641 C 48.886803 32.78864 48.612837 33.231113 48.273438 33.632812 C 47.946838 34.021112 47.567618 34.355719 47.136719 34.636719 C 46.718619 34.904618 46.268556 35.112566 45.785156 35.259766 C 45.301857 35.406965 44.799743 35.480469 44.277344 35.480469 C 43.545944 35.480469 42.852218 35.339893 42.199219 35.058594 C 41.559119 34.777594 40.998725 34.388078 40.515625 33.892578 C 40.045425 33.397479 39.672537 32.821815 39.398438 32.166016 C 39.124238 31.509816 38.986328 30.80624 38.986328 30.056641 C 38.986328 29.132842 39.124238 28.290443 39.398438 27.527344 C 39.672537 26.764145 40.045425 26.107493 40.515625 25.558594 C 40.998725 24.996294 41.559119 24.561806 42.199219 24.253906 C 42.852218 23.946007 43.545944 23.791016 44.277344 23.791016 C 44.799743 23.791016 45.308488 23.872603 45.804688 24.033203 C 46.301187 24.193903 46.757882 24.428428 47.175781 24.736328 C 47.606881 25.044328 47.992532 25.42566 48.332031 25.880859 C 48.671731 26.322659 48.938966 26.824419 49.134766 27.386719 L 53.054688 23.349609 C 52.584488 22.53291 52.02204 21.81094 51.369141 21.181641 C 50.729041 20.552341 50.024605 20.02215 49.253906 19.59375 C 48.496407 19.15195 47.692749 18.817444 46.84375 18.589844 C 46.007851 18.362144 45.152543 18.248047 44.277344 18.248047 z M 25.234375 19.072266 L 25.234375 40.580078 L 30.621094 40.580078 L 30.621094 19.072266 L 25.234375 19.072266 z M 77.308594 19.072266 L 77.308594 40.580078 L 82.695312 40.580078 L 82.695312 19.072266 L 77.308594 19.072266 z M 103.26758 19.113281 L 103.26758 24.574219 L 112.10352 24.574219 L 103.26758 40.580078 L 120.76172 40.580078 L 120.76172 35.117188 L 111.92578 35.117188 L 120.76172 19.113281 L 103.26758 19.113281 z M 122.93945 21.089844 C 122.926 21.090734 122.91364 21.094031 122.90039 21.097656 C 122.84839 21.112156 122.80339 21.146813 122.77539 21.195312 L 117.54492 30.482422 L 117.54492 30.484375 C 117.53192 30.508275 117.52158 30.533147 117.51758 30.560547 C 117.51458 30.588247 117.51644 30.617731 117.52344 30.644531 C 117.53044 30.671431 117.54259 30.694597 117.55859 30.716797 C 117.57559 30.738697 117.59514 30.757484 117.61914 30.771484 L 119.38281 31.814453 C 119.49181 31.687453 119.63973 31.601919 119.80273 31.574219 C 119.96573 31.546819 120.13239 31.579563 120.27539 31.664062 C 120.41839 31.748762 120.52989 31.880863 120.58789 32.039062 C 120.64689 32.197262 120.6487 32.37085 120.5957 32.53125 L 122.33594 33.560547 C 122.34294 33.565947 122.35042 33.571472 122.35742 33.576172 C 122.38142 33.590172 122.40659 33.597663 122.43359 33.601562 C 122.45959 33.605062 122.48767 33.604756 122.51367 33.597656 C 122.53967 33.590556 122.56394 33.577547 122.58594 33.560547 C 122.60694 33.543847 122.62467 33.522247 122.63867 33.498047 L 127.86914 24.210938 C 127.88314 24.186938 127.89248 24.160312 127.89648 24.132812 C 127.89948 24.105313 127.89862 24.077581 127.89062 24.050781 C 127.88463 24.023981 127.87147 23.998562 127.85547 23.976562 C 127.83947 23.954563 127.81792 23.935775 127.79492 23.921875 C 127.78992 23.919475 127.78525 23.918216 127.78125 23.916016 L 126.03125 22.880859 C 125.92225 23.008059 125.77433 23.091641 125.61133 23.119141 C 125.44833 23.146741 125.28167 23.11585 125.13867 23.03125 C 124.99567 22.94645 124.88517 22.812897 124.82617 22.654297 C 124.76817 22.495697 124.76436 22.322609 124.81836 22.162109 L 123.05664 21.119141 C 123.02064 21.098216 122.97981 21.087172 122.93945 21.089844 z M 123.36328 22.705078 C 123.40322 22.702411 123.44252 22.711422 123.47852 22.732422 L 126.21875 24.355469 C 126.24275 24.369369 126.2623 24.388156 126.2793 24.410156 C 126.2953 24.432056 126.30745 24.455622 126.31445 24.482422 C 126.32145 24.509122 126.32331 24.536953 126.32031 24.564453 C 126.31631 24.591853 126.30792 24.618578 126.29492 24.642578 L 122.2168 31.882812 C 122.2028 31.907012 122.18506 31.928613 122.16406 31.945312 C 122.14206 31.962312 122.1178 31.975222 122.0918 31.982422 C 122.0658 31.989522 122.03772 31.991781 122.01172 31.988281 C 121.98472 31.984681 121.95955 31.974937 121.93555 31.960938 L 119.19531 30.339844 C 119.17231 30.325844 119.15077 30.307156 119.13477 30.285156 C 119.11777 30.263256 119.10661 30.237537 119.09961 30.210938 C 119.09261 30.184038 119.08975 30.156306 119.09375 30.128906 C 119.09775 30.101506 119.10514 30.074681 119.11914 30.050781 L 123.19727 22.810547 C 123.22427 22.762047 123.26927 22.727391 123.32227 22.712891 C 123.33527 22.709266 123.34997 22.705967 123.36328 22.705078 z M 123.04102 26.085938 C 123.03489 26.086687 123.02894 26.087194 123.02344 26.089844 C 123.01244 26.095044 123.00209 26.104234 122.99609 26.115234 L 122.57617 26.863281 L 121.73047 26.701172 C 121.71847 26.698872 121.70436 26.701731 121.69336 26.707031 C 121.68236 26.712331 121.67397 26.719469 121.66797 26.730469 C 121.66197 26.741369 121.6572 26.754978 121.6582 26.767578 C 121.6592 26.780178 121.66583 26.791181 121.67383 26.800781 L 122.23242 27.472656 L 121.8125 28.21875 C 121.8065 28.23005 121.80369 28.243259 121.80469 28.255859 C 121.80569 28.268759 121.81036 28.281416 121.81836 28.291016 C 121.82636 28.300616 121.83761 28.307547 121.84961 28.310547 C 121.86261 28.313647 121.87472 28.311241 121.88672 28.306641 L 122.66406 27.990234 L 123.23828 28.677734 C 123.24628 28.687034 123.25753 28.694166 123.26953 28.697266 C 123.28153 28.700266 123.29464 28.699612 123.30664 28.695312 C 123.31764 28.690913 123.32698 28.682275 123.33398 28.671875 C 123.34098 28.661475 123.34375 28.649319 123.34375 28.636719 L 123.32812 27.714844 L 124.11523 27.267578 C 124.12623 27.261378 124.13563 27.251634 124.14062 27.240234 C 124.14562 27.228934 124.14848 27.215625 124.14648 27.203125 C 124.14448 27.190725 124.13886 27.178922 124.13086 27.169922 C 124.12186 27.161022 124.10966 27.156497 124.09766 27.154297 L 123.23047 26.988281 L 123.10742 26.136719 C 123.10542 26.124219 123.1008 26.112616 123.0918 26.103516 C 123.0828 26.094316 123.07255 26.088337 123.06055 26.085938 C 123.05455 26.084788 123.04714 26.085188 123.04102 26.085938 z " />
</svg>
